; generated by PrusaSlicer 2.0.0+win64 on 2019-08-29 at 23:14:43

; 

; external perimeters extrusion width = 0.50mm
; perimeters extrusion width = 0.50mm
; infill extrusion width = 0.50mm
; solid infill extrusion width = 0.50mm
; top infill extrusion width = 0.50mm
; first layer extrusion width = 0.40mm

M73 P0 R98
M73 Q0 S98
M201 X9000 Y9000 Z500 E10000 ; sets maximum accelerations, mm/sec^2
M203 X500 Y500 Z12 E120 ; sets maximum feedrates, mm/sec
M204 P1500 R1500 T1500 ; sets acceleration (P, T) and retract acceleration (R), mm/sec^2
M205 X10.00 Y10.00 Z0.20 E2.50 ; sets the jerk limits, mm/sec
M205 S0 T0 ; sets the minimum extruding and travel feed rate, mm/sec
M107
M190 S70 ; set bed temperature and wait for it to be reached
M117 Heating bed to 70
M104 70 ;wait for bed temperature
M117 Bed heating complete.  Homing.
G28 ; home all axes
G1 X290 Y290 Z2 F3000 ; get ready to prime
M117 Heating hot end to 195
M109 S195 ; wait for extruder temperature
M117 Priming nozzle
G92 E0 ; reset extrusion distance
G1 Z0.2
G1 Y190 E10 F600 ; prime nozzle
M73 Q0 S98
M73 P0 R97
G92 E0 ; reset extrusion distance
G1 Y160 F5000 ; quick wipe
M117 Printing
; Filament gcode
G21 ; set units to millimeters
G90 ; use absolute coordinates
M83 ; use relative distances for extrusion
G1 E-1.75000 F3600.00000
G1 Z0.200 F7200.000
G1 X117.035 Y136.255
G1 E1.75000 F2400.00000
M204 S1000
G1 F2160
G1 X118.512 Y134.995 E0.05764
G1 X120.655 Y133.675 E0.07473
G1 X122.302 Y132.969 E0.05320
G1 X124.042 Y132.543 E0.05320
G1 X125.112 Y132.427 E0.03194
G1 X150.015 Y131.008 E0.74061
G1 X151.657 Y131.058 E0.04878
G1 X153.337 Y131.218 E0.05008
G1 X154.892 Y131.467 E0.04678
G1 X156.528 Y131.835 E0.04977
G1 X158.175 Y132.321 E0.05099
G1 X159.870 Y132.951 E0.05369
G1 X162.631 Y134.286 E0.09107
G1 X165.224 Y135.945 E0.09140
G1 X166.598 Y137.017 E0.05175
G1 X167.722 Y138.018 E0.04468
G1 X170.079 Y140.555 E0.10281
G1 X171.051 Y141.834 E0.04771
G1 X172.064 Y143.371 E0.05465
G1 X173.043 Y145.283 E0.06377
G1 X173.384 Y146.277 E0.03122
G1 X173.629 Y147.299 E0.03122
G1 X173.941 Y149.960 E0.07955
G1 X173.905 Y151.125 E0.03460
G1 X173.743 Y152.288 E0.03484
G1 X173.489 Y153.325 E0.03170
G1 X173.130 Y154.339 E0.03194
G1 X171.802 Y157.024 E0.08895
G1 X170.249 Y159.234 E0.08019
G1 X168.631 Y161.074 E0.07275
G1 X167.020 Y162.620 E0.06630
G1 X165.328 Y163.976 E0.06437
G1 X163.002 Y165.561 E0.08359
G1 X160.772 Y166.657 E0.07375
G1 X158.266 Y167.645 E0.07999
G1 X156.339 Y168.214 E0.05965
G1 X153.922 Y168.700 E0.07321
G1 X151.527 Y168.950 E0.07148
G1 X148.705 Y168.956 E0.08380
G1 X124.321 Y167.435 E0.72540
G1 X121.822 Y166.835 E0.07631
G1 X120.176 Y166.192 E0.05248
G1 X118.497 Y165.183 E0.05814
G1 X116.876 Y163.801 E0.06325
G1 X115.842 Y162.610 E0.04685
G1 X114.908 Y161.204 E0.05010
G1 X114.185 Y159.719 E0.04905
G1 X113.665 Y158.164 E0.04869
G1 X113.435 Y157.088 E0.03267
G1 X113.316 Y155.994 E0.03267
G1 X113.185 Y149.945 E0.17965
G1 X113.253 Y144.430 E0.16376
G1 X113.384 Y143.264 E0.03484
G1 X113.641 Y142.118 E0.03484
G1 X114.132 Y140.737 E0.04354
G1 X115.074 Y138.809 E0.06371
G1 X115.986 Y137.449 E0.04861
G1 X116.985 Y136.311 E0.04497
G1 F5760
G1 X118.512 Y134.995 E-1.19668
G1 X119.180 Y134.584 E-0.46582
G1 E-0.08750 F3600.00000
G1 X118.815 Y135.218 F7200.000
G1 E1.75000 F2400.00000
G1 F2160
G1 X120.917 Y133.941 E0.07303
G1 X122.499 Y133.280 E0.05090
G1 X124.159 Y132.886 E0.05066
G1 X150.017 Y131.365 E0.76908
G1 X151.635 Y131.415 E0.04807
G1 X153.294 Y131.572 E0.04947
G1 X156.439 Y132.181 E0.09511
G1 X158.057 Y132.658 E0.05010
G1 X159.733 Y133.281 E0.05309
G1 X162.459 Y134.598 E0.08988
G1 X165.009 Y136.230 E0.08988
G1 X166.370 Y137.293 E0.05129
G1 X167.476 Y138.277 E0.04395
G1 X169.804 Y140.783 E0.10157
G1 X170.760 Y142.042 E0.04692
G1 X171.757 Y143.553 E0.05375
G1 X172.711 Y145.416 E0.06215
G1 X173.280 Y147.377 E0.06062
G1 X173.584 Y149.981 E0.07786
G1 X173.546 Y151.127 E0.03403
G1 X173.386 Y152.254 E0.03379
G1 X173.136 Y153.257 E0.03070
G1 X172.789 Y154.231 E0.03070
G1 X171.475 Y156.876 E0.08767
G1 X169.947 Y159.039 E0.07864
G1 X168.328 Y160.872 E0.07262
G1 X166.778 Y162.358 E0.06375
G1 X165.104 Y163.697 E0.06365
G1 X162.809 Y165.261 E0.08246
G1 X160.578 Y166.353 E0.07375
G1 X158.131 Y167.314 E0.07807
G1 X156.219 Y167.875 E0.05916
G1 X153.834 Y168.352 E0.07220
G1 X151.373 Y168.600 E0.07344
G1 X148.716 Y168.599 E0.07890
G1 X124.366 Y167.081 E0.72438
G1 X121.912 Y166.489 E0.07496
G1 X120.302 Y165.856 E0.05137
G1 X118.670 Y164.867 E0.05665
G1 X117.075 Y163.493 E0.06251
G1 X115.928 Y162.127 E0.05295
G1 X115.001 Y160.628 E0.05233
G1 X114.311 Y159.044 E0.05130
G1 X113.835 Y157.301 E0.05366
G1 X113.673 Y155.980 E0.03950
G1 X113.595 Y153.245 E0.08125
G1 X113.542 Y150.007 E0.09615
G1 X113.592 Y144.931 E0.15072
G1 X113.660 Y143.859 E0.03189
G1 X113.838 Y142.800 E0.03189
G1 X114.122 Y141.764 E0.03189
G1 X114.511 Y140.763 E0.03189
G1 X115.112 Y139.485 E0.04192
G1 X115.721 Y138.443 E0.03583
G1 X116.490 Y137.388 E0.03878
G1 X117.428 Y136.369 E0.04114
G1 X118.758 Y135.266 E0.05128
G1 X118.985 Y135.544 F7200.000
G1 F2160
G1 X119.058 Y135.485 E0.00278
G1 X121.114 Y134.242 E0.07134
G1 X122.634 Y133.612 E0.04886
G1 X124.244 Y133.235 E0.04909
G1 X150.011 Y131.722 E0.76636
G1 X151.613 Y131.771 E0.04760
G1 X153.259 Y131.928 E0.04909
G1 X154.776 Y132.172 E0.04564
G1 X156.426 Y132.547 E0.05022
G1 X157.977 Y133.007 E0.04804
G1 X159.691 Y133.649 E0.05436
G1 X162.640 Y135.112 E0.09772
G1 X165.112 Y136.751 E0.08807
G1 X167.387 Y138.691 E0.08878
G1 X169.801 Y141.355 E0.10675
G1 X170.942 Y142.937 E0.05790
G1 X171.800 Y144.334 E0.04868
G1 X172.309 Y145.374 E0.03438
G1 X172.696 Y146.466 E0.03438
G1 X172.937 Y147.485 E0.03111
G1 X173.155 Y148.981 E0.04486
G1 X173.200 Y150.987 E0.05958
G1 X172.848 Y152.970 E0.05981
G1 X172.245 Y154.577 E0.05096
G1 X171.366 Y156.341 E0.05853
G1 X170.816 Y157.252 E0.03158
G1 X168.981 Y159.643 E0.08950
G1 X166.890 Y161.770 E0.08856
G1 X165.220 Y163.168 E0.06465
G1 X162.912 Y164.779 E0.08358
G1 X161.914 Y165.334 E0.03392
G1 X159.552 Y166.408 E0.07702
G1 X157.369 Y167.186 E0.06882
G1 X155.384 Y167.704 E0.06093
G1 X153.293 Y168.067 E0.06301
G1 X151.072 Y168.255 E0.06616
G1 X148.727 Y168.242 E0.06963
G1 X124.412 Y166.727 E0.72337
G1 X122.002 Y166.143 E0.07361
G1 X120.428 Y165.520 E0.05026
G1 X118.837 Y164.547 E0.05537
G1 X117.279 Y163.191 E0.06133
G1 X116.183 Y161.871 E0.05095
G1 X115.291 Y160.411 E0.05079
G1 X114.603 Y158.797 E0.05212
G1 X114.175 Y157.178 E0.04971
G1 X114.028 Y155.934 E0.03719
G1 X113.951 Y153.221 E0.08059
G1 X113.899 Y150.004 E0.09553
G1 X113.949 Y144.896 E0.15168
G1 X114.020 Y143.858 E0.03088
G1 X114.198 Y142.825 E0.03111
G1 X114.479 Y141.824 E0.03088
G1 X114.860 Y140.857 E0.03088
G1 X115.443 Y139.621 E0.04056
G1 X116.046 Y138.600 E0.03521
G1 X116.796 Y137.578 E0.03765
G1 X117.729 Y136.574 E0.04069
G1 X118.927 Y135.592 E0.04600
G1 F5760
G1 X119.058 Y135.485 E-0.10011
G1 X121.114 Y134.242 E-1.42654
G1 X121.325 Y134.154 E-0.13584
G1 E-0.08750 F3600.00000
G1 X140.746 Y147.163 F7200.000
G1 E1.75000 F2400.00000
G1 F720
G1 X140.850 Y146.978 E0.00631
G1 X141.053 Y146.800 E0.00801
G1 X141.388 Y146.670 E0.01067
G1 X141.725 Y146.635 E0.01007
G1 X143.353 Y146.670 E0.04833
G1 X143.955 Y146.759 E0.01808
G1 X144.325 Y146.863 E0.01142
G1 X144.733 Y147.063 E0.01348
G1 X144.931 Y147.205 E0.00724
G1 X145.160 Y147.413 E0.00918
G1 X145.327 Y147.601 E0.00745
G1 X145.477 Y147.815 E0.00776
G1 X145.723 Y148.279 E0.01559
G1 X145.824 Y148.550 E0.00860
G1 X145.931 Y148.970 E0.01286
G1 X146.012 Y149.624 E0.01956
G1 X146.016 Y150.164 E0.01604
G1 X145.990 Y150.524 E0.01071
G1 X145.854 Y151.268 E0.02246
G1 X146.312 Y151.038 E0.01522
G1 X146.669 Y150.967 E0.01079
G1 X146.928 Y150.973 E0.00769
G1 X147.276 Y151.060 E0.01065
G1 X147.509 Y151.174 E0.00773
G1 X147.789 Y151.405 E0.01076
G1 X147.944 Y151.601 E0.00743
G1 X148.060 Y151.822 E0.00740
G1 X148.137 Y152.062 E0.00748
G1 X148.148 Y152.185 E0.00368
G1 X148.308 Y152.214 E0.00483
G1 X148.417 Y151.988 E0.00743
G1 X148.861 Y151.226 E0.02618
G1 X149.190 Y150.769 E0.01675
G1 X148.955 Y150.414 E0.01264
G1 X148.432 Y149.486 E0.03161
G1 X148.318 Y149.206 E0.00899
G1 X148.272 Y149.008 E0.00604
G1 X148.289 Y148.684 E0.00964
G1 X148.368 Y148.498 E0.00598
G1 X148.469 Y148.362 E0.00503
G1 X148.615 Y148.242 E0.00562
G1 X148.780 Y148.148 E0.00565
G1 X149.048 Y148.080 E0.00820
G1 X149.240 Y148.084 E0.00569
G1 X149.490 Y148.162 E0.00777
G1 X149.707 Y148.311 E0.00783
G1 X149.838 Y148.448 E0.00562
G1 X150.020 Y148.699 E0.00920
G1 X150.179 Y148.976 E0.00948
G1 X150.358 Y148.652 E0.01097
G1 X150.629 Y148.339 E0.01231
G1 X150.851 Y148.181 E0.00806
G1 X151.019 Y148.109 E0.00545
G1 X151.192 Y148.078 E0.00520
G1 X151.459 Y148.117 E0.00802
G1 X151.625 Y148.202 E0.00551
G1 X151.773 Y148.317 E0.00559
G1 X151.953 Y148.565 E0.00908
G1 X152.020 Y148.753 E0.00595
G1 X152.041 Y148.941 E0.00561
G1 X151.983 Y149.229 E0.00871
G1 X151.854 Y149.494 E0.00877
G1 X151.256 Y150.488 E0.03443
G1 X151.214 Y150.578 E0.00296
G1 X151.184 Y150.713 E0.00411
G1 X151.220 Y150.856 E0.00436
G1 X151.943 Y152.066 E0.04185
G1 X152.077 Y152.422 E0.01131
G1 X152.093 Y152.722 E0.00891
G1 X152.027 Y153.007 E0.00869
G1 X151.870 Y153.243 E0.00841
G1 X151.651 Y153.403 E0.00806
G1 X151.389 Y153.489 E0.00818
G1 X151.099 Y153.496 E0.00863
G1 X150.831 Y153.411 E0.00835
G1 X150.623 Y153.258 E0.00766
G1 X150.458 Y153.047 E0.00795
G1 X150.116 Y152.456 E0.02028
G1 X149.981 Y152.709 E0.00851
G1 X149.689 Y153.134 E0.01532
G1 X149.560 Y153.273 E0.00564
G1 X149.416 Y153.380 E0.00532
G1 X149.168 Y153.475 E0.00790
G1 X148.975 Y153.484 E0.00571
G1 X148.797 Y153.446 E0.00541
G1 X148.632 Y153.377 E0.00531
G1 X148.474 Y153.266 E0.00572
G1 X148.293 Y153.056 E0.00825
G1 X148.159 Y152.671 E0.01211
G1 X147.946 Y153.128 E0.01498
G1 X147.712 Y153.402 E0.01069
G1 X147.505 Y153.556 E0.00768
G1 X147.278 Y153.670 E0.00751
G1 X146.925 Y153.758 E0.01080
G1 X146.675 Y153.763 E0.00744
G1 X146.427 Y153.723 E0.00747
G1 X146.196 Y153.643 E0.00724
G1 X145.980 Y153.522 E0.00735
G1 X145.784 Y153.362 E0.00752
G1 X145.563 Y153.079 E0.01068
G1 X145.454 Y152.850 E0.00753
G1 X145.387 Y152.612 E0.00734
G1 X145.369 Y152.234 E0.01124
G1 X145.142 Y152.491 E0.01019
G1 X144.848 Y152.750 E0.01164
G1 X144.528 Y152.953 E0.01124
G1 X144.304 Y153.055 E0.00730
G1 X143.951 Y153.167 E0.01101
G1 X143.389 Y153.257 E0.01690
G1 X142.853 Y153.285 E0.01593
G1 X142.042 Y153.275 E0.02408
G1 X141.509 Y153.318 E0.01589
G1 X141.252 Y153.273 E0.00776
G1 X141.086 Y153.184 E0.00558
G1 X140.951 Y153.058 E0.00546
G1 X140.818 Y152.841 E0.00758
G1 X140.738 Y152.574 E0.00827
G1 X140.712 Y152.271 E0.00902
G1 X140.730 Y151.663 E0.01806
G1 X140.734 Y148.054 E0.10715
G1 X140.692 Y147.515 E0.01607
G1 X140.701 Y147.334 E0.00536
G1 X140.727 Y147.236 E0.00303
G1 X140.617 Y146.995 F7200.000
G1 F5760
G1 X140.850 Y146.978 E-0.16957
G1 X141.053 Y146.800 E-0.16014
G1 X141.388 Y146.670 E-0.21346
G1 X141.725 Y146.635 E-0.20136
G1 X143.271 Y146.668 E-0.91797
G1 E-0.08750 F3600.00000
G1 X140.376 Y148.731 F7200.000
G1 E1.75000 F2400.00000
G1 F720
G1 X140.375 Y149.968 E0.03673
G1 X140.203 Y150.003 E0.00520
G1 X140.090 Y149.736 E0.00859
G1 X139.906 Y149.472 E0.00957
G1 X140.099 Y149.125 E0.01178
G1 X140.183 Y148.712 E0.01253
G1 X140.302 Y148.724 E0.00353
G1 F5760
G1 X140.375 Y149.968 E-0.74028
G1 X140.203 Y150.003 E-0.10391
G1 X140.090 Y149.736 E-0.17186
G1 X139.906 Y149.472 E-0.19144
G1 X140.099 Y149.125 E-0.23553
G1 X140.173 Y148.763 E-0.21948
G1 E-0.08750 F3600.00000
G1 X139.399 Y149.487 F7200.000
G1 E1.75000 F2400.00000
G1 F720
G1 X139.552 Y149.611 E0.00584
G1 X139.672 Y149.746 E0.00536
G1 X139.773 Y149.904 E0.00557
G1 X139.890 Y150.179 E0.00886
G1 X140.026 Y150.641 E0.01430
G1 X140.098 Y151.000 E0.01087
G1 X140.110 Y151.340 E0.01010
G1 X140.033 Y151.798 E0.01381
G1 X139.908 Y152.136 E0.01070
G1 X139.793 Y152.367 E0.00767
G1 X139.582 Y152.668 E0.01091
G1 X139.240 Y152.998 E0.01410
G1 X138.939 Y153.190 E0.01059
G1 X138.722 Y153.291 E0.00712
G1 X138.492 Y153.366 E0.00719
G1 X138.127 Y153.436 E0.01101
G1 X137.569 Y153.455 E0.01658
G1 X137.039 Y153.394 E0.01584
G1 X136.607 Y153.266 E0.01337
G1 X136.262 Y153.069 E0.01180
G1 X136.104 Y152.925 E0.00635
G1 X135.940 Y152.709 E0.00805
G1 X135.838 Y152.448 E0.00833
G1 X135.802 Y152.245 E0.00611
G1 X135.806 Y152.039 E0.00611
G1 X135.877 Y151.770 E0.00825
G1 X135.980 Y151.609 E0.00568
G1 X136.107 Y151.478 E0.00542
G1 X136.335 Y151.351 E0.00773
G1 X136.523 Y151.299 E0.00581
G1 X136.802 Y151.287 E0.00828
G1 X137.007 Y151.318 E0.00617
G1 X137.310 Y151.445 E0.00973
G1 X137.762 Y151.766 E0.01646
G1 X137.871 Y151.761 E0.00324
G1 X138.023 Y151.695 E0.00493
G1 X138.129 Y151.594 E0.00432
G1 X138.211 Y151.424 E0.00561
G1 X138.226 Y151.276 E0.00443
G1 X138.192 Y151.124 E0.00459
G1 X138.127 Y150.992 E0.00440
G1 X138.021 Y150.854 E0.00516
G1 X137.848 Y150.707 E0.00672
G1 X137.693 Y150.628 E0.00517
G1 X137.505 Y150.575 E0.00581
G1 X137.077 Y150.499 E0.01291
G1 X136.782 Y150.371 E0.00955
G1 X136.636 Y150.232 E0.00599
G1 X136.540 Y150.073 E0.00550
G1 X136.481 Y149.812 E0.00795
G1 X136.488 Y149.620 E0.00570
G1 X136.554 Y149.351 E0.00821
G1 X136.647 Y149.162 E0.00626
G1 X136.828 Y148.953 E0.00822
G1 X137.064 Y148.816 E0.00810
G1 X137.695 Y148.684 E0.01915
G1 X137.780 Y148.639 E0.00284
G1 X137.903 Y148.503 E0.00545
G1 X137.930 Y148.414 E0.00276
G1 X137.896 Y148.264 E0.00457
G1 X137.858 Y148.218 E0.00176
G1 X137.776 Y148.182 E0.00267
G1 X137.621 Y148.190 E0.00461
G1 X137.499 Y148.237 E0.00388
G1 X137.106 Y148.493 E0.01394
G1 X136.857 Y148.601 E0.00805
G1 X136.596 Y148.624 E0.00777
G1 X136.340 Y148.541 E0.00800
G1 X136.151 Y148.409 E0.00684
G1 X136.025 Y148.271 E0.00556
G1 X135.918 Y148.110 E0.00573
G1 X135.841 Y147.929 E0.00583
G1 X135.801 Y147.738 E0.00581
G1 X135.809 Y147.549 E0.00562
G1 X135.886 Y147.307 E0.00754
G1 X135.992 Y147.140 E0.00587
G1 X136.262 Y146.890 E0.01092
G1 X136.548 Y146.719 E0.00989
G1 X136.879 Y146.589 E0.01056
G1 X137.364 Y146.493 E0.01469
G1 X137.854 Y146.471 E0.01458
G1 X138.426 Y146.530 E0.01705
G1 X138.869 Y146.661 E0.01373
G1 X139.168 Y146.823 E0.01010
G1 X139.424 Y147.034 E0.00983
G1 X139.631 Y147.286 E0.00968
G1 X139.788 Y147.615 E0.01083
G1 X139.861 Y147.964 E0.01058
G1 X139.866 Y148.302 E0.01005
G1 X139.843 Y148.592 E0.00863
G1 X139.760 Y149.000 E0.01236
G1 X139.579 Y149.325 E0.01105
G1 X139.455 Y149.437 E0.00499
G1 X139.594 Y149.515 F7200.000
G1 F5760
G1 X139.552 Y149.611 E-0.11812
G1 X139.672 Y149.746 E-0.10728
G1 X139.773 Y149.904 E-0.11136
G1 X139.890 Y150.179 E-0.17726
G1 X140.026 Y150.641 E-0.28604
G1 X140.098 Y151.000 E-0.21735
G1 X140.110 Y151.340 E-0.20203
G1 X140.033 Y151.798 E-0.27613
G1 X139.936 Y152.062 E-0.16693
G1 E-0.08750 F3600.00000
G1 X135.882 Y149.092 F7200.000
G1 E1.75000 F2400.00000
G1 F1440
G1 X135.777 Y149.521 E0.01312
G1 X135.764 Y149.879 E0.01063
G1 X135.869 Y150.343 E0.01413
G1 X136.072 Y150.680 E0.01167
G1 X135.668 Y150.906 E0.01375
G1 X135.417 Y151.163 E0.01067
G1 X135.215 Y151.479 E0.01114
G1 X135.093 Y151.940 E0.01414
G1 X135.087 Y152.301 E0.01072
G1 X135.147 Y152.642 E0.01029
G1 X135.312 Y153.061 E0.01337
G1 X135.574 Y153.409 E0.01295
G1 X135.841 Y153.651 E0.01068
G1 X136.325 Y153.927 E0.01656
G1 X136.896 Y154.096 E0.01765
G1 X137.540 Y154.171 E0.01927
G1 X138.207 Y154.148 E0.01982
G1 X138.670 Y154.059 E0.01400
G1 X138.984 Y153.957 E0.00981
G1 X139.284 Y153.817 E0.00981
G1 X139.684 Y153.561 E0.01412
G1 X140.148 Y153.114 E0.01913
G1 X140.393 Y153.515 E0.01395
G1 X140.667 Y153.769 E0.01108
G1 X141.014 Y153.956 E0.01171
G1 X141.475 Y154.038 E0.01392
G1 X142.067 Y153.989 E0.01762
G1 X142.867 Y153.999 E0.02376
G1 X143.465 Y153.969 E0.01776
G1 X144.116 Y153.863 E0.01960
G1 X144.561 Y153.723 E0.01386
G1 X144.869 Y153.582 E0.01005
G1 X144.990 Y153.506 E0.00424
G1 X145.270 Y153.865 E0.01354
G1 X145.578 Y154.116 E0.01177
G1 X145.902 Y154.297 E0.01104
G1 X146.251 Y154.419 E0.01096
G1 X146.626 Y154.479 E0.01128
G1 X147.021 Y154.470 E0.01174
G1 X147.528 Y154.343 E0.01550
G1 X147.881 Y154.167 E0.01172
G1 X148.188 Y153.938 E0.01137
G1 X148.286 Y154.007 E0.00356
G1 X148.584 Y154.130 E0.00958
